storage/app/icons/phosphoricons/thin/tram-thin.svg

<svg xmlns="http://www.w3.org/2000/svg" fill="currentColor" viewBox="0 0 256 256"><path d="M184 52h-52V20h36a4 4 0 0 0 0-8H88a4 4 0 0 0 0 8h36v32H72a28 28 0 0 0-28 28v104a28 28 0 0 0 28 28h16l-19.2 25.6a4 4 0 1 0 6.4 4.8L98 212h60l22.8 30.4a4 4 0 0 0 6.4-4.8L168 212h16a28 28 0 0 0 28-28V80a28 28 0 0 0-28-28M72 60h112a20 20 0 0 1 20 20v44H52V80a20 20 0 0 1 20-20m112 144H72a20 20 0 0 1-20-20v-52h152v52a20 20 0 0 1-20 20m-92-32a8 8 0 1 1-8-8 8 8 0 0 1 8 8m88 0a8 8 0 1 1-8-8 8 8 0 0 1 8 8"/></svg>

<svg xmlns="http://www.w3.org/2000/svg" viewBox="0 0 256 256" fill="currentColor"><path d="M184,52H132V20h36a4,4,0,0,0,0-8H88a4,4,0,0,0,0,8h36V52H72A28,28,0,0,0,44,80V184a28,28,0,0,0,28,28H88L68.8,237.6a4,4,0,1,0,6.4,4.8L98,212h60l22.8,30.4a4,4,0,0,0,6.4-4.8L168,212h16a28,28,0,0,0,28-28V80A28,28,0,0,0,184,52ZM72,60H184a20,20,0,0,1,20,20v44H52V80A20,20,0,0,1,72,60ZM184,204H72a20,20,0,0,1-20-20V132H204v52A20,20,0,0,1,184,204ZM92,172a8,8,0,1,1-8-8A8,8,0,0,1,92,172Zm88,0a8,8,0,1,1-8-8A8,8,0,0,1,180,172Z"/></svg>
